X:024 
T:Golden Retriever*, The   
F:file ID levey.2/024gold
Z:bill@capeirish.com
B:Levey2.89 (unnamed)
N:First part doubled, repeat added to second part.
Q:170
L:1/8
M:6/8
R:jig
K:G
B|d2d B2G|d2d BAG|d2d g2B|A2G ABc|
d2d B2G|d2d BAG|d2d g2B|AFD G2:|
A|GAG g2d|ecc d2c|Bcd d2d|e2A ABG|
GAG gB=f|ece d2c|Bcd d2d|1 e2A AB :|\
[2 "last time"AFD G3-|G6|]

